X: 1671
T: Little Toy Soldier
B: australian traditional tunes wiki
M:4/4
L:1/8
R: Barn Dance
Q: 1/4=100
K:Dmaj
V:1 
F>G"INTRO"|"D"(3AFD A/2F/2D/2A/2 "A7"G>E C>A,|"D"D2F2D2|
|:F>G|"D"A2d2g2f2|"G"e>B-B4e>d|"A"c>e g>b a>e f>g|"D"(3fad' bd'b a>f F>G|
"D"A2d2g2f2|"G"e>B-B4e>d|"A"c>e g>b a>g e>f|"D"d4-d2:|
f>g|(3aba f4e>d|"G"(3efeB4e>d|"A"c>B c<eG2(3c=cB|"D"A>F A>d f3z|
(3aba f4e>d |"G"(3efe B4e>d|"A7"c>e g>b a>g e>f|1"D"d4-d2:|2"D"d2f2d2||
% abcbook-tune_id 6342d53a89349399a2d2ccba


% abcbook-boost 0
% abcbook-tablature 
% abcbook-transpose 
% abcbook-lastupdated 1665324377166
% abcbook-soundfonts 
% abcbook-repeats 1
% NFF Book 2022
% Bush Traditions recording played by Ray Mulligan

